src/assets/images/logo.svg

<svg width="282" height="44" viewBox="0 0 282 44" fill="none" xmlns="http://www.w3.org/2000/svg">
<path fill-rule="evenodd" clip-rule="evenodd" d="M57.5361 0L58.0786 22.4749C58.1403 22.6125 58.1993 22.7507 58.2554 22.8897L63 24.8775L59.0031 27.9188C58.9892 28.0619 58.9723 28.2045 58.9526 28.3467L62.1978 32.0585L57.1484 33.0549C53.1461 39.25 43.2689 43.6326 31.7182 43.6326C20.229 43.6326 10.3955 39.2965 6.3524 33.1537L0.802035 32.0585L4.25175 28.1127L0 24.8775L5.27298 22.6683C5.33928 22.5133 5.40913 22.3592 5.48247 22.206L4.95739 0.453177L24.0351 10.8621C26.4724 10.4263 29.0506 10.1926 31.7182 10.1926C34.478 10.1926 37.1422 10.4428 39.6537 10.9081L57.5361 0Z" fill="#F3F3FF"/>
<path d="M91.125 31.375L88.625 30.25V25.275C89.175 25.325 90.125 25.425 91.425 25.4C95.925 25.325 97.925 22.95 97.925 20.075C97.925 17.775 96.5 15.375 91.525 15.375H81.85C81.725 15.375 81.725 15.925 81.85 16L83.9 17.125C83.85 18.6 83.75 20.5 83.75 23.325C83.75 26.15 83.85 28.6 83.9 30.25L81.85 31.375C81.725 31.45 81.7 32 81.85 32H91.125C91.275 32 91.25 31.425 91.125 31.375ZM88.625 16.475H89.65C90.675 16.475 91.45 16.575 91.9 16.775C92.525 17.4 92.85 18.75 92.85 20.075C92.85 22.85 92.05 24.275 89.975 24.275C89.375 24.275 89.15 24.25 88.625 24.175V16.475ZM114.473 31.05C114.573 31 114.548 30.475 114.423 30.45L112.623 30.05L112.373 29.7C112.423 28.475 112.523 26.325 112.523 23.625C112.523 22.5 112.523 20.1 112.348 19.3C112.348 19.3 110.873 19.35 109.373 19.5C108.148 19.625 106.973 19.775 106.623 19.85C106.473 19.875 106.498 20.525 106.623 20.6L108.298 21.725C108.223 22.675 108.123 24.475 108.123 26.1C108.123 27.3 108.123 28.525 108.223 29.55C107.673 29.7 106.823 29.95 105.673 29.95C104.123 29.95 104.048 29.025 103.998 26.6C103.973 25.15 103.973 24.25 103.998 22.8C104.023 21.5 104.123 19.975 103.948 19.35C102.773 19.4 101.923 19.425 101.023 19.5C99.723 19.6 98.823 19.7 98.173 19.8C98.048 19.825 98.073 20.5 98.173 20.55L99.848 21.725C99.723 23.25 99.598 26.625 99.723 28.1C99.973 31.275 101.423 32.275 103.773 32.275C105.373 32.275 107.498 30.8 108.298 30.25V30.275C108.573 31.375 109.423 32.275 110.498 32.275C112.023 32.275 113.998 31.45 114.473 31.05ZM123.765 31.375L121.315 30.2C121.39 28.325 121.415 25.725 121.415 24C121.415 23.425 121.415 22.925 121.415 22.5C121.765 22.325 122.54 22.075 123.19 22.025C123.765 22.1 124.865 22.95 125.715 23.425C125.84 23.475 126.14 23.45 126.315 23.4C126.565 23.1 126.94 22.1 127.015 20.975C127.065 19.7 126.84 19.075 125.44 19.15C123.915 19.225 122.34 20.8 121.39 21.775C121.34 20.55 121.265 19.875 121.115 19.375C119.265 19.375 115.74 19.575 115.315 19.625C115.165 19.65 115.165 20.3 115.29 20.375L117.19 21.7C117.14 22.675 117.09 23.9 117.09 26.05C117.09 27.825 117.14 29.225 117.19 30.25L115.615 31.375C115.49 31.475 115.465 32 115.615 32H123.74C123.865 32 123.84 31.425 123.765 31.375ZM135.996 31.375L133.546 30.2C133.621 28.325 133.646 25.725 133.646 24C133.646 23.425 133.646 22.925 133.646 22.5C133.996 22.325 134.771 22.075 135.421 22.025C135.996 22.1 137.096 22.95 137.946 23.425C138.071 23.475 138.371 23.45 138.546 23.4C138.796 23.1 139.171 22.1 139.246 20.975C139.296 19.7 139.071 19.075 137.671 19.15C136.146 19.225 134.571 20.8 133.621 21.775C133.571 20.55 133.496 19.875 133.346 19.375C131.496 19.375 127.971 19.575 127.546 19.625C127.396 19.65 127.396 20.3 127.521 20.375L129.421 21.7C129.371 22.675 129.321 23.9 129.321 26.05C129.321 27.825 129.371 29.225 129.421 30.25L127.846 31.375C127.721 31.475 127.696 32 127.846 32H135.971C136.096 32 136.071 31.425 135.996 31.375ZM148.228 31.375L145.778 30.2C145.853 28.325 145.878 25.725 145.878 24C145.878 23.425 145.878 22.925 145.878 22.5C146.228 22.325 147.003 22.075 147.653 22.025C148.228 22.1 149.328 22.95 150.178 23.425C150.303 23.475 150.603 23.45 150.778 23.4C151.028 23.1 151.403 22.1 151.478 20.975C151.528 19.7 151.303 19.075 149.903 19.15C148.378 19.225 146.803 20.8 145.853 21.775C145.803 20.55 145.728 19.875 145.578 19.375C143.728 19.375 140.203 19.575 139.778 19.625C139.628 19.65 139.628 20.3 139.753 20.375L141.653 21.7C141.603 22.675 141.553 23.9 141.553 26.05C141.553 27.825 141.603 29.225 141.653 30.25L140.078 31.375C139.953 31.475 139.928 32 140.078 32H148.203C148.328 32 148.303 31.425 148.228 31.375ZM158.059 30.25C158.134 28.6 158.184 25.25 158.184 21.425L161.734 21.55C161.884 21.55 161.909 19.55 161.734 19.55L158.184 19.625V16.275C158.184 14.575 158.634 13.875 159.284 13.85C159.734 14.05 160.734 16.075 161.409 17.05C161.534 17.125 161.834 17.225 162.034 17.225C163.059 16.825 163.584 15.975 163.509 14.975C163.284 13.625 161.609 13.05 159.709 13.05C157.959 13.05 156.509 13.6 155.559 14.45C154.584 15.325 153.984 17.1 153.859 19.425L152.184 20.55C152.084 20.625 152.034 21.425 152.184 21.425H153.859C153.859 21.975 153.809 23.55 153.809 25.325C153.809 27.175 153.884 29.475 153.934 30.25L152.234 31.375C152.109 31.45 152.084 32 152.234 32H160.434C160.609 32 160.609 31.45 160.459 31.375L158.059 30.25ZM162.29 25.9C162.29 30.6 165.265 32.35 169.165 32.35C171.09 32.35 173.265 31.45 174.49 29.975C174.665 29.725 174.24 29.175 174.14 29.25C173.24 29.75 172.09 30.1 170.515 30.1C167.94 30.1 166.965 28.5 166.84 25.5L174.015 25.525C174.215 25.525 174.565 25.15 174.615 24.825C174.79 21.7 172.815 19.025 169.265 19.025C165.59 19.025 162.29 21.35 162.29 25.9ZM166.84 24.575C166.865 22.675 167.215 21 167.69 20.35C168.04 20.125 168.365 20.025 168.815 20.025C170.04 20.025 170.54 20.975 170.615 22.825C170.64 23.225 170.615 23.95 170.59 24.425L166.84 24.575ZM183.988 20.2L185.113 23.675C185.288 23.775 185.638 23.825 186.063 23.825C187.313 23.825 188.088 22.825 187.888 21.45C187.488 20.125 185.688 19.025 183.263 19.025C179.013 19.025 175.888 21.5 175.888 25.925C175.888 30.575 178.813 32.35 182.738 32.35C184.588 32.35 186.688 31.475 187.913 29.975C188.088 29.725 187.688 29.175 187.563 29.25C186.688 29.775 185.563 30.15 184.063 30.1C181.938 30.05 180.513 29.175 180.513 24.8C180.513 23.05 180.838 21.425 181.388 20.45C181.763 20.175 182.313 20.025 182.938 20.025C183.363 20.025 183.713 20.075 183.988 20.2ZM194.802 32.35C197.002 32.35 198.577 31.175 199.177 30.6C199.252 30.525 199.077 29.875 198.977 29.9C198.402 30.05 197.627 30.225 196.877 30.225C195.177 30.225 194.752 29.95 194.752 27.375C194.752 25.55 194.827 22.8 194.877 21.425L198.252 21.55C198.402 21.55 198.427 19.55 198.252 19.55L194.902 19.625C194.902 18.45 194.952 16.975 195.002 16.15C195.002 15.95 193.852 15.95 193.702 16.15L190.777 19.5L188.777 20.55C188.677 20.6 188.677 21.425 188.777 21.425H190.527C190.402 23.425 190.352 26.125 190.402 28.1C190.527 31.25 191.677 32.35 194.802 32.35ZM220.087 17.925C220.037 19.3 219.962 21.825 219.987 24.3C220.012 26.875 219.987 28.825 220.062 30.225L218.262 31.375C218.137 31.45 218.112 32 218.262 32H226.787C226.912 32 226.887 31.425 226.787 31.375L224.712 30.225C224.812 28.675 224.862 26.25 224.837 23.725C224.812 20.975 224.762 18.7 224.662 17.125L226.712 16C226.837 15.925 226.837 15.375 226.712 15.375H220.037L215.637 26.175C215.137 24.625 214.312 22.575 213.562 20.725C212.687 18.6 211.837 16.7 211.187 15.375H204.387C204.262 15.375 204.237 15.925 204.387 16L206.612 17.125L206.262 30.225L204.012 31.375C203.912 31.425 203.887 32 204.012 32H209.662C209.787 32 209.762 31.45 209.662 31.375L207.537 30.225L207.662 18.05C208.262 19.775 209.387 22.7 210.387 25.1C211.362 27.45 212.712 30.55 213.462 31.9C213.612 32.15 214.187 32.1 214.262 31.9L220.087 17.925ZM237.398 32.275C238.848 32.275 240.923 31.475 241.398 31.075C241.498 31.025 241.473 30.475 241.348 30.45L239.623 30.05L239.373 29.7C239.448 28.175 239.548 25.5 239.448 23.275C239.298 20.1 237.023 19.025 234.073 19.025C231.748 19.025 229.573 20.45 228.723 21.175C228.573 21.35 228.873 21.975 228.973 21.95C230.073 21.55 231.798 21.225 233.098 21.225C234.598 21.225 235.098 21.425 235.098 23.95C235.098 24.225 235.098 24.55 235.098 24.95C233.048 25.05 230.473 25.275 229.498 25.7C228.423 26.325 227.848 27.6 227.898 29.125C227.973 30.975 229.223 32.3 231.373 32.3C232.773 32.3 234.248 31.35 235.248 30.575C235.598 31.475 236.348 32.175 237.398 32.275ZM233.323 30.325C232.523 30.3 232.048 29.65 231.998 28.525C231.973 27.575 232.223 26.725 232.623 26.35C233.448 26.025 234.223 25.825 235.073 25.7C235.073 27.075 235.073 28.75 235.148 29.875C234.523 30.25 233.973 30.35 233.323 30.325ZM248.146 32.35C250.346 32.35 251.921 31.175 252.521 30.6C252.596 30.525 252.421 29.875 252.321 29.9C251.746 30.05 250.971 30.225 250.221 30.225C248.521 30.225 248.096 29.95 248.096 27.375C248.096 25.55 248.171 22.8 248.221 21.425L251.596 21.55C251.746 21.55 251.771 19.55 251.596 19.55L248.246 19.625C248.246 18.45 248.296 16.975 248.346 16.15C248.346 15.95 247.196 15.95 247.046 16.15L244.121 19.5L242.121 20.55C242.021 20.6 242.021 21.425 242.121 21.425H243.871C243.746 23.425 243.696 26.125 243.746 28.1C243.871 31.25 245.021 32.35 248.146 32.35ZM261.137 20.2L262.262 23.675C262.437 23.775 262.787 23.825 263.212 23.825C264.462 23.825 265.237 22.825 265.037 21.45C264.637 20.125 262.837 19.025 260.412 19.025C256.162 19.025 253.037 21.5 253.037 25.925C253.037 30.575 255.962 32.35 259.887 32.35C261.737 32.35 263.837 31.475 265.062 29.975C265.237 29.725 264.837 29.175 264.712 29.25C263.837 29.775 262.712 30.15 261.212 30.1C259.087 30.05 257.662 29.175 257.662 24.8C257.662 23.05 257.987 21.425 258.537 20.45C258.912 20.175 259.462 20.025 260.087 20.025C260.512 20.025 260.862 20.075 261.137 20.2ZM272.856 31.375L271.456 30.25C271.506 28.6 271.556 25.925 271.581 22.025C272.081 21.875 272.806 21.65 273.931 21.65C275.481 21.65 275.631 22.375 275.631 24.8C275.631 26.25 275.506 28.8 275.431 30.25L274.081 31.375C273.981 31.45 273.956 32 274.081 32H281.431C281.581 32 281.556 31.45 281.456 31.375L279.731 30.25C279.881 28.475 280.081 25.275 280.006 23.525C279.881 20.325 278.381 19.175 276.056 19.175C274.556 19.175 272.406 20.65 271.581 21.25C271.581 20 271.581 18.65 271.581 17.175C271.581 14.925 271.506 13.975 271.281 13.225C269.431 13.25 266.256 13.65 265.531 13.775C265.356 13.8 265.381 14.4 265.506 14.475L267.481 15.7C267.381 17.225 267.306 20.4 267.306 22.875C267.306 25.5 267.381 28.45 267.431 30.25L265.931 31.375C265.831 31.475 265.781 32 265.931 32H272.831C272.956 32 272.931 31.425 272.856 31.375Z" fill="white"/>
</svg>

<svg xmlns="http://www.w3.org/2000/svg" width="282" height="44" fill="none"><path fill="#F3F3FF" fill-rule="evenodd" d="M57.54 0l.54 22.47c.06.14.12.28.18.42L63 24.87l-4 3.04c0 .14-.03.28-.05.43l3.25 3.7-5.05 1c-4 6.2-13.88 10.58-25.43 10.58-11.5 0-21.32-4.33-25.37-10.48L.8 32.05l3.45-3.94L0 24.9l5.27-2.2c.07-.17.14-.32.2-.47L4.98.46l19.07 10.4c2.43-.42 5-.66 7.68-.66 2.76 0 5.42.24 7.93.7L57.55 0z" clip-rule="evenodd"/><path fill="#fff" d="M91.13 31.38l-2.5-1.13v-4.98c.55.05 1.5.16 2.8.13 4.5-.07 6.5-2.45 6.5-5.32 0-2.3-1.43-4.7-6.4-4.7h-9.68c-.13 0-.13.54 0 .62l2.05 1.13c-.05 1.47-.15 3.37-.15 6.2 0 2.82.1 5.27.15 6.92l-2.05 1.13c-.13.07-.15.62 0 .62h9.28c.15 0 .12-.57 0-.63zm-2.5-14.9h1.02c1.02 0 1.8.1 2.25.3.63.62.95 1.97.95 3.3 0 2.77-.8 4.2-2.88 4.2-.6 0-.82-.03-1.34-.1v-7.7zm25.84 14.57c.1-.05.08-.57-.05-.6l-1.8-.4-.25-.35c.05-1.22.15-3.38.15-6.07 0-1.13 0-3.53-.17-4.33 0 0-1.48.05-2.98.2-1.22.13-2.4.27-2.75.35-.15.02-.12.67 0 .75l1.68 1.13c-.08.95-.18 2.75-.18 4.37 0 1.2 0 2.42.1 3.45-.55.15-1.4.4-2.55.4-1.55 0-1.62-.93-1.67-3.35-.03-1.45-.03-2.35 0-3.8.02-1.3.12-2.82-.05-3.45-1.18.05-2.03.07-2.93.15-1.3.1-2.2.2-2.85.3-.12.02-.1.7 0 .75l1.68 1.18c-.13 1.52-.25 4.9-.13 6.37.25 3.17 1.7 4.17 4.05 4.17 1.6 0 3.73-1.47 4.53-2.02v.02c.27 1.1 1.12 2 2.2 2 1.52 0 3.5-.82 3.97-1.22zm9.3.32l-2.45-1.17c.07-1.88.1-4.47.1-6.2 0-.57 0-1.07 0-1.5.34-.18 1.12-.43 1.77-.48.56.08 1.66.93 2.52 1.4.12.05.42.03.6-.02.25-.3.62-1.3.7-2.42.05-1.28-.18-1.9-1.58-1.83-1.52.08-3.1 1.65-4.05 2.63-.06-1.23-.14-1.9-.3-2.4-1.83 0-5.36.2-5.78.25-.15.02-.15.67-.03.75l1.9 1.32c-.06.98-.1 2.2-.1 4.35 0 1.77.04 3.18.1 4.2l-1.6 1.13c-.1.1-.13.62.02.62h8.12c.13 0 .1-.57.03-.63zm12.23 0l-2.45-1.17c.07-1.88.1-4.47.1-6.2 0-.57 0-1.07 0-1.5.35-.18 1.12-.43 1.77-.48.58.08 1.68.93 2.53 1.4.12.05.42.03.6-.02.25-.3.62-1.3.7-2.42.05-1.28-.18-1.9-1.58-1.83-1.52.08-3.1 1.65-4.05 2.63-.05-1.23-.12-1.9-.27-2.4-1.85 0-5.38.2-5.8.25-.15.02-.15.67-.03.75l1.9 1.32c-.05.98-.1 2.2-.1 4.35 0 1.77.05 3.18.1 4.2l-1.57 1.13c-.13.1-.15.62 0 .62h8.12c.13 0 .1-.57.03-.63zm12.23 0l-2.45-1.17c.07-1.88.1-4.47.1-6.2 0-.57 0-1.07 0-1.5.35-.18 1.12-.43 1.77-.48.58.08 1.68.93 2.53 1.4.12.05.42.03.6-.02.25-.3.62-1.3.7-2.42.05-1.28-.18-1.9-1.58-1.83-1.52.08-3.1 1.65-4.05 2.63-.05-1.23-.12-1.9-.27-2.4-1.85 0-5.38.2-5.8.25-.15.02-.15.67-.03.75l1.9 1.32c-.05.98-.1 2.2-.1 4.35 0 1.77.05 3.18.1 4.2l-1.57 1.13c-.13.1-.15.62 0 .62h8.12c.13 0 .1-.57.03-.63zm9.83-1.12c.07-1.65.12-5 .12-8.82l3.55.12c.15 0 .18-2 0-2l-3.55.07v-3.35c0-1.7.45-2.4 1.1-2.42.45.2 1.45 2.22 2.13 3.2.13.07.43.18.63.18 1.03-.4 1.55-1.26 1.48-2.26-.22-1.35-1.9-1.92-3.8-1.92-1.74 0-3.2.55-4.14 1.4-.98.88-1.58 2.65-1.7 4.98l-1.68 1.12c-.1.07-.15.88 0 .88h1.68c0 .55-.05 2.12-.05 3.9 0 1.85.08 4.15.13 4.92l-1.7 1.13c-.12.07-.15.62 0 .62h8.2c.18 0 .18-.55.03-.63l-2.4-1.12zm4.23-4.35c0 4.7 2.96 6.45 6.86 6.45 1.93 0 4.1-.9 5.33-2.38.16-.24-.26-.8-.36-.72-.9.5-2.05.85-3.63.85-2.56 0-3.53-1.6-3.66-4.6l7.17.02c.22 0 .56-.37.62-.7.17-3.12-1.8-5.8-5.36-5.8-3.67 0-6.97 2.33-6.97 6.88zm4.54-1.32c.03-1.9.38-3.58.85-4.23.34-.23.67-.33 1.12-.33 1.22 0 1.72.96 1.8 2.8.02.4 0 1.13-.03 1.6l-3.76.15zM184 20.2l1.1 3.48c.2.1.54.14.96.14 1.25 0 2.03-1 1.83-2.37-.4-1.32-2.2-2.43-4.64-2.43-4.25 0-7.37 2.48-7.37 6.9 0 4.65 2.9 6.43 6.84 6.43 1.85 0 3.95-.88 5.17-2.38.2-.24-.2-.8-.34-.72-.87.52-2 .9-3.5.85-2.12-.05-3.55-.93-3.55-5.3 0-1.75.34-3.38.9-4.35.36-.27.9-.43 1.54-.43.42 0 .77.05 1.05.18zm10.8 12.15c2.2 0 3.78-1.18 4.38-1.75.07-.08-.1-.73-.2-.7-.58.15-1.35.33-2.1.33-1.7 0-2.13-.28-2.13-2.86 0-1.82.08-4.57.13-5.95l3.37.13c.15 0 .18-2 0-2l-3.35.07c0-1.17.05-2.64.1-3.47 0-.2-1.15-.2-1.3 0l-2.92 3.35-2 1.05c-.1.05-.1.88 0 .88h1.75c-.13 2-.18 4.7-.13 6.67.13 3.15 1.28 4.25 4.4 4.25zm25.3-14.43c-.06 1.38-.14 3.9-.1 6.38 0 2.57 0 4.52.06 5.93l-1.8 1.14c-.12.08-.15.63 0 .63h8.53c.1 0 .1-.57 0-.63l-2.1-1.14c.1-1.55.16-3.98.14-6.5-.03-2.75-.08-5.03-.18-6.6L226.7 16c.14-.07.14-.63 0-.63h-6.66l-4.4 10.8c-.5-1.55-1.33-3.6-2.08-5.45-.87-2.12-1.72-4.02-2.37-5.34h-6.8c-.14 0-.16.54 0 .62l2.2 1.13-.34 13.1-2.25 1.14c-.1.05-.1.63 0 .63h5.66c.13 0 .1-.55 0-.63l-2.12-1.14.12-12.18c.6 1.72 1.73 4.65 2.73 7.05.96 2.35 2.3 5.45 3.06 6.8.15.25.73.2.8 0l5.83-13.97zm17.3 14.35c1.45 0 3.52-.8 4-1.2.1-.05.07-.6-.05-.62l-1.73-.4-.25-.35c.08-1.52.18-4.2.08-6.43-.15-3.17-2.43-4.25-5.38-4.25-2.32 0-4.5 1.43-5.35 2.16-.15.17.15.8.25.77 1.1-.4 2.83-.72 4.13-.72 1.5 0 2 .2 2 2.72 0 .28 0 .6 0 1-2.05.1-4.63.32-5.6.75-1.08.63-1.65 1.9-1.6 3.43.07 1.85 1.32 3.17 3.47 3.17 1.4 0 2.88-.95 3.88-1.72.35.9 1.1 1.6 2.15 1.7zm-4.08-1.95c-.8-.02-1.27-.67-1.32-1.8-.03-.95.22-1.8.62-2.17.83-.33 1.6-.53 2.45-.65 0 1.38 0 3.05.08 4.18-.63.37-1.18.47-1.83.45zm14.83 2.03c2.2 0 3.77-1.18 4.37-1.75.08-.08-.1-.73-.2-.7-.57.15-1.35.33-2.1.33-1.7 0-2.12-.28-2.12-2.86 0-1.82.07-4.57.12-5.95l3.38.13c.15 0 .17-2 0-2l-3.35.07c0-1.17.05-2.64.1-3.47 0-.2-1.15-.2-1.3 0l-2.93 3.35-2 1.05c-.1.05-.1.88 0 .88h1.75c-.12 2-.17 4.7-.12 6.67.12 3.15 1.27 4.25 4.4 4.25zm13-12.15l1.1 3.48c.2.1.54.14.96.14 1.26 0 2.04-1 1.84-2.37-.4-1.32-2.2-2.43-4.63-2.43-4.24 0-7.36 2.48-7.36 6.9 0 4.65 2.92 6.43 6.85 6.43 1.84 0 3.94-.88 5.16-2.38.18-.24-.22-.8-.35-.72-.86.52-2 .9-3.5.85-2.1-.05-3.54-.93-3.54-5.3 0-1.75.33-3.38.88-4.35.37-.27.92-.43 1.55-.43.4 0 .76.05 1.04.18zm11.7 11.18l-1.4-1.13c.06-1.65.1-4.32.13-8.23.5-.14 1.23-.37 2.35-.37 1.55 0 1.7.73 1.7 3.15 0 1.45-.12 4-.2 5.45l-1.35 1.13c-.1.07-.12.62 0 .62h7.35c.15 0 .13-.55.03-.63l-1.73-1.12c.15-1.77.35-4.98.28-6.73-.12-3.2-1.62-4.34-3.94-4.34-1.5 0-3.65 1.47-4.48 2.07 0-1.25 0-2.6 0-4.07 0-2.25-.07-3.2-.3-3.96-1.85.03-5.02.43-5.75.55-.17.03-.15.63-.02.7l1.98 1.23c-.1 1.53-.17 4.7-.17 7.18 0 2.62.08 5.57.13 7.37l-1.5 1.13c-.1.1-.15.62 0 .62h6.9c.13 0 .1-.57.03-.63z"/></svg>
